packages/calcite-ui-icons/icons/portal-other-32.svg

<?xml version="1.0" encoding="UTF-8"?><svg id="icons" xmlns="http://www.w3.org/2000/svg" viewBox="0 0 32 32"><defs><style>.cls-1{fill:none;}</style></defs><path d="M12.29321,17.73651l-1.30859.76337,5.51508,3.21735,5.51562-3.21735-1.30865-.76331.99237-.57886,2.30103,1.34216-7.50043,4.37506-7.49957-4.37506,2.30084-1.34222.99231.57886ZM24.00006,13.49988l-7.50043,4.37506-7.49957-4.37506,7.49957-4.37494,7.50043,4.37494ZM16.49969,16.71722l5.51562-3.21735-5.51562-3.21722-5.51508,3.21722,5.51508,3.21735ZM14,2.5c0-1.38074,1.11932-2.5,2.5-2.5s2.49103,1.11926,2.49103,2.5c0,1.20929-.85181,2.21777-1.99103,2.44958v3.05042h-1v-3.05042c-1.14105-.23169-2-1.24017-2-2.44958ZM15,2.5c0,.82715.67285,1.5,1.5,1.5s1.49103-.67285,1.49103-1.5-.66388-1.5-1.49103-1.5-1.5.67285-1.5,1.5ZM9.00098,25.99994c-2.09375,0-4.00098-2.10742-4.00098-4.42188v-8.63184c0-1.68555.93457-3.20508,2.43848-3.96777l7.0871-3.59271c-.29352-.20142-.54474-.45447-.76459-.73358l-6.77441,3.4342c-1.82935.92719-2.98657,2.80884-2.98657,4.85992v8.63208c0,2.7627,2.23895,5.42163,5.00104,5.42163h4.40155c.33057-.40875.73615-.74707,1.20099-1.00006h-5.6026ZM19.31921,4.54797c-.21014.29016-.46356.54413-.75092.75757l9.4317,4.27545v9.65723c0,3.60156-2.96191,6.76172-6.33887,6.76172h-3.26685c.46387.25299.86829.59131,1.19775,1.00006h2.06879c4.05328,0,7.33917-3.70709,7.33917-7.76147v-10.30243l-9.68079-4.38812ZM18.99103,29.5c0,1.38068-1.11029,2.5-2.49103,2.5s-2.5-1.11932-2.5-2.5c0-1.20947.85895-2.2179,2-2.44958v-3.05042h1v3.05042c1.13922.23175,1.99103,1.24023,1.99103,2.44958ZM17.99103,29.5c0-.82715-.66388-1.5-1.49103-1.5s-1.5.67285-1.5,1.5.67285,1.5,1.5,1.5,1.49103-.67285,1.49103-1.5Z"/><rect class="cls-1" width="32" height="32"/></svg>

<svg xmlns="http://www.w3.org/2000/svg" viewBox="0 0 32 32"><path d="M12.293 17.737l-1.308.763 5.515 3.217 5.515-3.217-1.308-.763.992-.58L24 18.5l-7.5 4.375L9 18.5l2.3-1.342.993.579zM24 13.5l-7.5 4.375L9 13.5l7.5-4.375L24 13.5zm-7.5 3.217l5.515-3.217-5.515-3.217-5.515 3.217 5.515 3.217zM14 2.5C14 1.12 15.12 0 16.5 0s2.491 1.12 2.491 2.5c0 1.21-.852 2.218-1.991 2.45V8h-1V4.95a2.5 2.5 0 0 1-2-2.45zm1 0c0 .827.673 1.5 1.5 1.5s1.491-.673 1.491-1.5S17.327 1 16.5 1 15 1.673 15 2.5zM9.001 26C6.907 26 5 23.893 5 21.578v-8.632a4.43 4.43 0 0 1 2.438-3.968l7.088-3.592a3.516 3.516 0 0 1-.765-.734L6.987 8.086A5.454 5.454 0 0 0 4 12.946v8.632C4 24.341 6.239 27 9.001 27h4.402c.33-.409.736-.747 1.2-1H9.002zM19.319 4.548c-.21.29-.463.544-.75.758L28 9.58v9.657C28 22.84 25.038 26 21.661 26h-3.267c.464.253.869.591 1.198 1h2.069C25.714 27 29 23.293 29 19.239V8.936l-9.68-4.388zM18.991 29.5c0 1.38-1.11 2.5-2.491 2.5a2.5 2.5 0 0 1-.5-4.95V24h1v3.05a2.495 2.495 0 0 1 1.991 2.45zm-1 0c0-.827-.664-1.5-1.491-1.5s-1.5.673-1.5 1.5.673 1.5 1.5 1.5 1.491-.673 1.491-1.5z"/><path fill="none" d="M0 0h32v32H0z"/></svg>
